icons/svg/eyedropper.svg

<svg width="24" height="24" viewBox="0 0 24 24" fill="none" xmlns="http://www.w3.org/2000/svg">
<path d="M19.0471 7.81873L20.9195 9.69119M19.0471 7.81873L16.1833 4.95497M19.0471 7.81873L20.5429 6.32294C20.9334 5.93242 20.9334 5.29926 20.5429 4.90873L19.0933 3.45918C18.7028 3.06866 18.0696 3.06866 17.6791 3.45918L16.1833 4.95497M14.3109 3.08251L16.1833 4.95497" stroke="currentColor" stroke-width="1.5" stroke-linecap="round" stroke-linejoin="round"/>
<path d="M12.3882 7.70653C12.974 7.12075 13.9237 7.12075 14.5095 7.70653L16.2956 9.4926C16.8814 10.0784 16.8814 11.0281 16.2956 11.6139L7.73376 20.1757C7.50915 20.4003 7.21904 20.5478 6.90522 20.597L4.78461 20.9292C3.77931 21.0866 2.91229 20.2187 3.0708 19.2136L3.40474 17.096C3.45413 16.7827 3.60153 16.4932 3.82577 16.2689L12.3882 7.70653Z" stroke="currentColor" stroke-width="1.5" stroke-linecap="round" stroke-linejoin="round"/>
</svg>

<svg xmlns="http://www.w3.org/2000/svg" width="24" height="24" fill="none" viewBox="0 0 24 24"><path stroke="currentColor" stroke-linecap="round" stroke-linejoin="round" stroke-width="1.5" d="M19.047 7.819 20.92 9.69m-1.872-1.87-2.864-2.864m2.864 2.864 1.496-1.496a1 1 0 0 0 0-1.414l-1.45-1.45a1 1 0 0 0-1.414 0l-1.496 1.496m-1.872-1.872 1.872 1.872m-3.796 2.751a1.5 1.5 0 0 1 2.121 0l1.787 1.786a1.5 1.5 0 0 1 0 2.12l-8.562 8.563a1.5 1.5 0 0 1-.829.421l-2.12.332a1.5 1.5 0 0 1-1.714-1.715l.334-2.118a1.5 1.5 0 0 1 .42-.827z"/></svg>
